X:430
T:Love, Port and Sherry
C:W. Power's Collection of Country Dances, Dublin, c. 1812
S:Colin Hume's website,  colinhume.com  - chords can also be printed below the stave.
Q:3/8=120
M:6/8
L:1/8
K:D
P:A
|: A | "D"d3 fed | "A7"cea age | "D"d3 "Bm"fed | "A7"cdB ABc |\
"D"d3 fed | "A7"cea abg | "D"fed "A7"cBc | "D"dAF D2 :|
P:B
|: A/G/ | "D"F2F FAF | "G"G2G GBG | "D"A2A "Bm"fed | "A7"cea a2d/e/ |\
"D"fed "Em"gfe | "D/F#"agf "G"bag | "D/A"fed "A7"cBc | "D"dAF D2 :|

